X:1
T:Covenant (Barnby), 66.86.10.10
T:Covenant (Barnby), 66.86.10.10
T:Joseph Barnby, 1874
T:Public Domain Courtesy of the Cyber Hymnal™
C:Joseph Barnby, 1874
Z:Public Domain
Z:Courtesy of the Cyber Hymnal™
%%score ( 1 2 ) ( 3 4 )
L:1/8
Q:1/4=105
M:4/4
K:Eb
V:1 treble 
V:2 treble 
V:3 bass 
V:4 bass 
V:1
 G2 | [Ec]2 [Ec]2 [GB]2 [FA]2 | [DG]6 G2 | [Ge]2 (dc) [Ad]2 d2 | [Ec]4 [Ac]4 | %5
 [GB]2 [Gc]2 [FA]2 (GF) | [EG]2 [EA]2 [DF]2 [DG]2 | [CE]2 [CE]2 [CF]2 [CF]2 x | [=B,G]6 [B,D]2 | %9
 [CE]2 [DF]2 [EG]3 [EG] | [EG]2 [Ec]2 [Ac]2 d2 | [Ee]6 [Ee]2 | [Ec]2 [FB]2 [EG]2 [EA]2 | %13
 [DG]2 (=FE) [CD]2 [=B,D]2 | C6 |] %15
V:2
 G2 | x8 | x6 G2 | x2 C2 x (GF) x | x8 | x6 D2 | x8 | x9 | x8 | x8 | x6 (GF) | x8 | x8 | %13
 x2 =C2 x4 | C6 |] %15
V:3
 G,2 | [C,G,]2 [A,,A,]2 [E,G,]2 [F,C]2 | [G,=B,]6 [B,D]2 | C2 (DE) (DC) [G,=B,]2 | [C,C]4 [A,,E]4 | %5
 [E,E]2 [C,E]2 [F,C]2 [B,,B,]2 | [E,B,]2 [C,A,]2 [C,A,]2 [=B,,G,]2 | G,3 z C, (F,E,) (D,C,) | %8
 [G,,D,]6 [G,,G,]2 | [C,G,]2 [B,,B,]2 [E,B,]3 [E,B,] | [E,B,]2 A,2 [F,C]2 (B,A,) | %11
 [E,G,]6 [G,B,]2 | A,2 [D,F,]2 [E,B,]2 [C,E,]2 | [=B,,G,]2 [C,G,]2 [F,,A,]2 (G,F,) | [C,E,]6 |] %15
V:4
 G,2 | x8 | x8 | C2 A,2 F,2 x2 | x8 | x8 | x8 | C,2 C,2 A,,2 A,,2 x | x8 | x8 | x2 A,2 B,,2 x2 | %11
 x8 | A,2 x6 | x6 G,,2 | x6 |] %15

